img/telegram-white.svg

<svg width="25" height="24" viewBox="0 0 25 24" fill="none" xmlns="http://www.w3.org/2000/svg">
<rect x="0.5" width="24" height="24" rx="12" fill="#21DAFF"/>
<path d="M17.3 7.56153L15.4968 16.9756C15.4968 16.9756 15.2445 17.6283 14.5514 17.3152L10.3908 14.0117L10.3715 14.002C10.9335 13.4794 15.2915 9.42179 15.4819 9.23787C15.7768 8.95301 15.5937 8.78343 15.2514 8.99861L8.8141 13.232L6.33061 12.3667C6.33061 12.3667 5.93978 12.2227 5.90218 11.9097C5.86409 11.5961 6.34347 11.4265 6.34347 11.4265L16.4679 7.31356C16.4679 7.31356 17.3 6.93495 17.3 7.56153V7.56153Z" fill="#F2F2ED"/>
</svg>

<svg width="25" height="24" fill="none" xmlns="http://www.w3.org/2000/svg"><rect x=".5" width="24" height="24" rx="12" fill="#21DAFF"/><path d="M17.3 7.562l-1.803 9.414s-.252.652-.946.34l-4.16-3.304-.02-.01c.563-.523 4.92-4.58 5.11-4.764.296-.285.113-.455-.23-.24l-6.437 4.234-2.483-.865s-.391-.144-.429-.457c-.038-.314.441-.483.441-.483l10.125-4.113s.832-.38.832.248z" fill="#F2F2ED"/></svg>
